music-note-off.svg

<svg fill="currentColor" viewBox="0 0 24 24"><path d="M4.27 3 3 4.27l9 9v.28c-.59-.34-1.27-.55-2-.55-2.21 0-4 1.79-4 4s1.79 4 4 4 4-1.79 4-4v-1.73L19.73 21 21 19.73zM14 7h4V3h-6v5.18l2 2Z"/></svg>

<svg  viewBox="0 0 24 24" fill="currentColor"><path  d="M4.27 3L3 4.27L12 13.27V13.55C11.41 13.21 10.73 13 10 13C7.79 13 6 14.79 6 17S7.79 21 10 21 14 19.21 14 17V15.27L19.73 21L21 19.73L4.27 3M14 7H18V3H12V8.18L14 10.18Z"/></svg>
